svgs/duotone/siren-on.svg

<svg xmlns="http://www.w3.org/2000/svg" viewBox="0 0 640 512"><!--! Font Awesome Pro 6.3.0 by @fontawesome - https://fontawesome.com License - https://fontawesome.com/license (Commercial License) Copyright 2023 Fonticons, Inc. --><defs><style>.fa-secondary{opacity:.4}</style></defs><path class="fa-primary" d="M536 112.2c4.75 0 9.375-1.374 13.25-3.997l48-31.98c7.375-4.621 11.62-12.76 11.12-21.5c-.5-8.744-5.625-16.49-13.5-20.23c-7.75-3.748-17-2.998-24.12 1.873l-48 31.97c-8.875 5.871-12.75 16.76-9.625 26.88C516.1 105.2 525.5 112.2 536 112.2zM90.75 108.2C97.88 113.2 107.1 114.1 115 110.2C122.9 106.4 128 98.7 128.5 89.95C129 81.21 124.8 73.07 117.3 68.45l-48-31.97C62.13 31.35 52.88 30.6 45 34.35C37.13 38.22 32 45.97 31.5 54.71C31 63.45 35.25 71.59 42.75 76.21L90.75 108.2zM112 224.1c0-13.24-10.75-23.99-24-23.99h-64c-13.25 0-24 10.71-24 23.95s10.75 24.03 24 24.03h64C101.3 248.1 112 237.4 112 224.1zM616 200.1h-64c-13.25 0-24 10.75-24 23.99s10.75 23.99 24 23.99h64c13.25 0 24-10.79 24-24.03S629.3 200.1 616 200.1zM520 352H120C106.7 352 96 362.7 96 376v80C96 469.3 106.7 480 120 480h400c13.25 0 24-10.75 24-24v-80C544 362.7 533.3 352 520 352z"/><path class="fa-secondary" d="M224.3 167.2c.25-2.123 1.375-4.121 3-5.371c1.75-1.248 3.875-1.873 6-1.498l15.88 2.123c2 .25 4 1.373 5.25 2.998C255.6 167.2 256.3 169.4 256 171.5l-24.12 180.6H496l-25-199.8c-4-31.97-31.25-56.06-63.5-56.06h-175c-32.25 0-59.5 24.08-63.5 56.06L144 352.1h55.5L224.3 167.2z"/></svg>

<svg xmlns="http://www.w3.org/2000/svg" viewBox="0 0 640 512"><!-- Font Awesome Pro 6.0.0-alpha2 by @fontawesome - https://fontawesome.com License - https://fontawesome.com/license (Commercial License) --><defs><style>.fa-secondary{opacity:.4}</style></defs><path d="M224.25 167.246C224.5 165.123 225.625 163.125 227.25 161.875C229 160.627 231.125 160.002 233.25 160.377L249.125 162.5C251.125 162.75 253.125 163.873 254.375 165.498C255.625 167.246 256.25 169.369 256 171.492L231.875 352.102H496L471 152.258C467 120.283 439.75 96.303 407.5 96.303H232.5C200.25 96.303 173 120.283 169 152.258L144 352.102H199.5L224.25 167.246Z" class="fa-secondary"/><path d="M536 112.289C540.75 112.289 545.375 110.916 549.25 108.293L597.25 76.318C604.625 71.697 608.875 63.453 608.375 54.711C607.875 45.967 602.75 38.223 594.875 34.477C587.125 30.729 577.875 31.479 570.75 36.35L522.75 68.324C513.875 74.195 510 85.186 513.125 95.303C516.125 105.295 525.5 112.289 536 112.289ZM90.75 108.293C97.875 113.289 107.125 114.164 115 110.291C122.875 106.545 128 98.801 128.5 90.057C129 81.314 124.75 73.07 117.25 68.449L69.25 36.475C62.125 31.354 52.875 30.604 45 34.352C37.125 38.223 32 45.967 31.5 54.711C31 63.453 35.25 71.697 42.75 76.318L90.75 108.293ZM112 224.201C112 210.961 101.25 200.221 88 200.221H24C10.75 200.221 0 210.961 0 224.201S10.75 248.182 24 248.182H88C101.25 248.182 112 237.441 112 224.201ZM616 200.221H552C538.75 200.221 528 210.961 528 224.201S538.75 248.182 552 248.182H616C629.25 248.182 640 237.441 640 224.201S629.25 200.221 616 200.221ZM520 352H120C106.745 352 96 362.745 96 376V456C96 469.255 106.745 480 120 480H520C533.255 480 544 469.255 544 456V376C544 362.745 533.255 352 520 352Z" class="fa-primary"/></svg>
